X: 127
T: No_211_They_Are_Feeding.krn
N: Derived from No_211_They_Are_Feeding.krn
%%abc-version 2.0
%%abcx-abcm2ps-target-version 5.9.1 (29 Sep 2008)
%%abc-creator hum2abc beta
%%abcx-conversion-date 2019/03/15 08:38:45
%%humdrum-veritas 1065076007
%%humdrum-veritas-data 3674541693
%%linebreak <none>
%%barnumbers 0
L: 1/16
M: 3/8
K: E clef=bass
[K:clef=bass][M:3/8](G,E,)G,4 | 
E,4z2 | 
(E,C,)B,,4 | 
E,6 | 
(G,E,)G,4 | 
E,4z2 | 
(E,C,)B,,4 | 
E,4G,G, ||  
[M:4/8]G,4(G,E,) G,2 ||  
[M:3/8]E,4z2 | 
(E,C,)B,,4 | 
E,6 | 
(G,E,)G,4 | 
E,4z2 | 
(E,C,)B,,4 | 
E,4z2 | 
z4G,G, ||  
[M:4/8]G,4(G,E,) G,2 ||  
[M:3/8]E,4z2 | 
(E,C,)B,,4 | 
E,6 | 
(G,E,)G,4 | 
E,4z2 | 
(E,C,)B,,4 | 
E,4z2 | 
z4G,G, ||  
[M:4/8]G,4(G,E,) G,2 ||  
[M:3/8]E,4z2 | 
(E,C,)B,,4 | 
E,6 | 
(G,E,)G,4 | 
E,4z2 | 
(E,C,)B,,4 | 
E,4G,G, ||  
[M:2/4]E,4G,2E,2 ||  
[M:3/4]G,8-G,2B,,2 | 
B,,B,,B,,2 C,2B,,2z4 |]  



